icons/nvm.svg

<svg width="16" height="16" viewBox="0 0 16 16" fill="none" xmlns="http://www.w3.org/2000/svg">
<path d="M13.7519 5.3553C13.9055 5.44491 14 5.60936 14 5.78719V13.2785C14 13.6276 13.6513 13.8692 13.3244 13.7467L10.3244 12.6217C10.1293 12.5485 10 12.3619 10 12.1535V8.30902C10 8.11964 9.893 7.94651 9.72361 7.86181L8.22361 7.11181C8.08284 7.04143 7.91716 7.04143 7.77639 7.11181L6.27639 7.86181C6.107 7.94651 6 8.11964 6 8.30902V12.1537C6 12.362 5.8708 12.5485 5.67575 12.6217L2.68022 13.7464C2.35343 13.8691 2.00467 13.6277 2.00447 13.2786L2.00016 5.78738C2.00006 5.60945 2.09453 5.44486 2.24823 5.35521L7.74806 2.14697C7.90374 2.05615 8.09625 2.05615 8.25193 2.14697L13.7519 5.3553Z" fill="#3F9F61"/>
</svg>

<svg xmlns="http://www.w3.org/2000/svg" width="16" height="16" fill="none" viewBox="0 0 16 16"><path fill="#3F9F61" d="M13.752 5.355a.5.5 0 0 1 .248.432v7.491a.5.5 0 0 1-.676.469l-3-1.125a.5.5 0 0 1-.324-.469V8.31a.5.5 0 0 0-.276-.447l-1.5-.75a.5.5 0 0 0-.448 0l-1.5.75A.5.5 0 0 0 6 8.309v3.845a.5.5 0 0 1-.324.468L2.68 13.746a.5.5 0 0 1-.676-.467L2 5.787a.5.5 0 0 1 .248-.432l5.5-3.208a.5.5 0 0 1 .504 0z"/></svg>
